X: 17240
T: Herb Reid's
R: polka
M: 2/4
K: Dmajor
|:DF/G/ AF|EF GB|AB cd|ed cA|
DF/G/ AF|EF GB|AB ce|d2 d2:|
|:df fe|dc BA|Be Bc|dc BA|
df fe|dc BA|Be Bc|d2 d2:|

